!!!COM: Haydn, Franz Joseph 
!!!OPR: Symphony in E-flat Major 
!!!OTL: Adagio 
!!!OMV: 1 
!!!SCT: H I:22 
!!!SCA: Thematisch-bibliographisches Werkevererzeichnis (A. van Hoboken) 
!!!YOR: Breitkopf & Härtel Edition 
!!!EED: Frances Bennion 
!!!ENC: Frances Bennion 
!!!CDT: 1732/3/31/-1809/5/31/
!!!OCY: Österreich 
!!!YEC: Copyright (c) 1994, 2000 Center for Computer Assisted Research in the Humanities 
!!!YEM: Rights to all derivative editions reserved. 
!!!YEM: Refer to licensing agreement for further details. 
!!!YEN: United States of America 
**kern	**kern	**kern	**kern	**kern	**kern	**kern	**kern
*k[b-e-]	*k[b-e-]	*k[]	*k[]	*k[b-e-a-]	*k[b-e-a-]	*k[b-e-a-]	*k[b-e-a-]
*g:	*g:	*g:	*g:	*g:	*g:	*g:	*g:
*clefF	*clefF	*clefF	*clefF	*clefF	*clefF	*clefC3	*clefF4
*M4/4	*M4/4	*M4/4	*M4/4	*M4/4	*M4/4	*M4/4	*M4/4
*tb32	*tb32	*tb32	*tb32	*tb32	*tb32	*tb32	*tb32
=1	=1	=1	=1	=1	=1	=1	=1
1r	1r	2cc	2c	8e-	8e-	8e-	8E-
.	.	.	.	8B-	8B-	8B-	8BB-
.	.	.	.	8G	8G	8G	8GG
.	.	.	.	8B-	8B-	8B-	8BB-
.	.	2ee	2e	8e-	8e-	8e-	8E-
.	.	.	.	8B-	8B-	8B-	8BB-
.	.	.	.	8G	8G	8G	8GG
.	.	.	.	8e-	8e-	8e-	8E-
=2	=2	=2	=2	=2	=2	=2	=2
1r	1r	2gg	2g	8d	8d	8d	8D
.	.	.	.	8c	8c	8c	8C
.	.	.	.	8B-	8B-	8B-	8BB-
.	.	.	.	8A-	8A-	8A-	8AA-
.	.	2cc	2c	8G	8G	8G	8GG
.	.	.	.	8e-	8e-	8e-	8E-
.	.	.	.	8g	8g	8g	8G
.	.	.	.	8e-	8e-	8e-	8E-
=3	=3	=3	=3	=3	=3	=3	=3
2ee-	2ee-	1r	1r	8f	8f	8f	8F
.	.	.	.	8e-	8e-	8e-	8E-
.	.	.	.	8c	8c	8c	8C
.	.	.	.	8d	8d	8d	8D
4dd	4dd	.	.	8e-	8e-	8e-	8E-
.	.	.	.	8f	8f	8f	8F
4b-	4b-	.	.	8g	8g	8g	8G
.	.	.	.	8cc	8cc	8cc	8c
=4	=4	=4	=4	=4	=4	=4	=4
4g	4g	1r	1r	8a-	8a-	8a-	8A-
.	.	.	.	8g	8g	8g	8G
4a	4a	.	.	8f	8f	8f	8F
.	.	.	.	8b-	8b-	8b-	8B-
2b-	2b-	.	.	8g	8g	8g	8G
.	.	.	.	8e-	8e-	8e-	8E-
.	.	.	.	8B-	8B-	8B-	8BB-
.	.	.	.	8A-	8A-	8A-	8AA-
=5	=5	=5	=5	=5	=5	=5	=5
1r	1r	2cc	2c	8G	8G	8G	8GG
.	.	.	.	8e-	8e-	8e-	8E-
.	.	.	.	8g	8g	8g	8G
.	.	.	.	8f	8f	8f	8F
.	.	2ee	2e	8e-	8e-	8e-	8E-
.	.	.	.	8B-	8B-	8B-	8BB-
.	.	.	.	8G	8G	8G	8GG
.	.	.	.	8e-	8e-	8e-	8E-
=6	=6	=6	=6	=6	=6	=6	=6
1r	1r	2gg	2g	8d	8d	8d	8D
.	.	.	.	8c	8c	8c	8C
.	.	.	.	8B-	8B-	8B-	8BB-
.	.	.	.	8A-	8A-	8A-	8AA-
.	.	2cc	2c	8G	8G	8G	8GG
.	.	.	.	8e-	8e-	8e-	8E-
.	.	.	.	8g	8g	8g	8G
.	.	.	.	8f	8f	8f	8F
=7	=7	=7	=7	=7	=7	=7	=7
2dd	2dd	1r	1r	8e-	8e-	8e-	8E-
.	.	.	.	8f	8f	8f	8F
.	.	.	.	8g	8g	8g	8G
.	.	.	.	8a	8a	8a	8A
2cc	2cc	.	.	8b-	8b-	8b-	8B-
.	.	.	.	8cc	8cc	8cc	8c
.	.	.	.	8dd	8dd	8dd	8d
.	.	.	.	8b-	8b-	8b-	8B-
=8	=8	=8	=8	=8	=8	=8	=8
4.b-	4.b-	2r	2r	8cc	8cc	8cc	8c
.	.	.	.	8b-	8b-	8b-	8B-
.	.	.	.	8g	8g	8g	8G
16cc	16cc	.	.	8a	8a	8a	8A
16g	16g	.	.	.	.	.	.
4a	4a	4gg	4g	8b-	8b-	8b-	8B-
.	.	.	.	8B-	8B-	8B-	8BB-
4r	4r	4dd	4dd	8d	8d	8d	8D
.	.	.	.	8b-	8b-	8b-	8B-
=9	=9	=9	=9	=9	=9	=9	=9
1r	1r	4gg	4g	8g	8g	8g	8G
.	.	.	.	8f	8f	8f	8F
.	.	8ee	8cc	8e-	8e-	8e-	8E-
.	.	8cc	8cc	8g	8g	8g	8G
.	.	2dd	2dd	8f	8f	8f	8F
.	.	.	.	8e-	8e-	8e-	8E-
.	.	.	.	8f	8f	8f	8F
.	.	.	.	8f	8f	8F	8FF
=10	=10	=10	=10	=10	=10	=10	=10
1cc	4.r	4g	4g	4B-	16B-	16B-	8BB-
.	.	.	.	.	16f	16f	.
.	.	.	.	.	16f	16f	8B-
.	.	.	.	.	16f	16f	.
.	.	2.r	2.r	8r	16f	16f	8d
.	.	.	.	.	16f	16f	.
.	8f	.	.	8dd	16f	16f	8B-
.	.	.	.	.	16f	16f	.
.	8e	.	.	8ee-	16f	16f	8c
.	.	.	.	.	16f	16f	.
.	8g	.	.	8cc	16f	16f	8A
.	.	.	.	.	16f	16f	.
.	8f	.	.	8dd	16f	16f	8B-
.	.	.	.	.	16f	16f	.
.	8b	.	.	8ee	16f	16b-	8G
.	.	.	.	.	16f	16b-	.
=11	=11	=11	=11	=11	=11	=11	=11
1cc	4cc	1r	1r	4ff	16f	16a	8F
.	.	.	.	.	16f	16f	.
.	.	.	.	.	16f	16f	8A
.	.	.	.	.	16f	16f	.
.	8r	.	.	8r	16f	16f	8c
.	.	.	.	.	16f	16f	.
.	8g	.	.	8cc	16f	16f	8A
.	.	.	.	.	16f	16f	.
.	8f	.	.	8dd-	16f	16f	8B-
.	.	.	.	.	16f	16f	.
.	8g	.	.	8cc	16f	16f	8A
.	.	.	.	.	16f	16f	.
.	8a-	.	.	8dd-	16f	16f	8B-
.	.	.	.	.	16f	16f	.
.	8b	.	.	8ee	16f	16b-	8G-
.	.	.	.	.	16f	16b-	.
=12	=12	=12	=12	=12	=12	=12	=12
2cc	2.cc	1r	1r	2.ff	4f	8a	8F
.	.	.	.	.	.	8g	8E-
.	.	.	.	.	4r	8f	8D
.	.	.	.	.	.	8e-	8C
2dd	.	.	.	.	2gg	4d	8BB
.	.	.	.	.	.	.	8G
.	[4b-	.	.	[4ee-	.	[4c	8c
.	.	.	.	.	.	.	8B-
=13	=13	=13	=13	=13	=13	=13	=13
[2cc	4b-]	1r	1r	4ee-]	[2ff	4c]	8A
.	.	.	.	.	.	.	8F
.	[4a	.	.	[4dd	.	8.B-	8B-
.	.	.	.	.	.	.	8D
.	.	.	.	.	.	16A	.
16cc]	16a]	.	.	16dd]	16ff]	4G	8E-
16b-	16g	.	.	16cc	16ee-	.	.
16dd	16b-	.	.	16ee-	16gg	.	8C
16b-	16g	.	.	16cc	16ee-	.	.
8a	8f	.	.	8b-	8dd	8F	8F
8g	8e	.	.	8a	8cc	8F	8F
=14	=14	=14	=14	=14	=14	=14	=14
4f	4f	[1g	[1g	2bb-	2bb-	8d	8D
.	.	.	.	.	.	8f	8F
2.r	2.r	.	.	.	.	8b-	8B-
.	.	.	.	.	.	8d	8D
.	.	.	.	4gg	4gg	8e-	8E-
.	.	.	.	.	.	8g	8G
.	.	.	.	8ee-	8ee-	8cc	8c
.	.	.	.	8cc	8cc	8e-	8E-
=15	=15	=15	=15	=15	=15	=15	=15
1r	1r	4g]	4g]	4.b-	4.b-	8f	8F
.	.	.	.	.	.	8f	8d
.	.	2.r	2.r	.	.	8f	8F
.	.	.	.	16cc	16cc	8A	8A
.	.	.	.	16b-	16b-	.	.
.	.	.	.	8b-	8b-	8B-	8B-
.	.	.	.	8b-	8b-	8g	8G
.	.	.	.	8b-	8b-	8f	8F
.	.	.	.	8b-	8b-	8e-	8E-
=16	=16	=16	=16	=16	=16	=16	=16
1r	1r	[1g	[1g	2bb-	2bb-	8d	8D
.	.	.	.	.	.	8f	8F
.	.	.	.	.	.	8b-	8B-
.	.	.	.	.	.	8d	8D
.	.	.	.	4gg	4gg	8e-	8E-
.	.	.	.	.	.	8g	8G
.	.	.	.	8ee-	8ee-	8cc	8c
.	.	.	.	8cc	8cc	8e-	8E-
=17	=17	=17	=17	=17	=17	=17	=17
1r	1r	4g]	4g]	4.b-	4.b-	8d	8F
.	.	.	.	.	.	8d	8d
.	.	2.r	2.r	.	.	8g	8G
.	.	.	.	16cc	16cc	8e-	8e-
.	.	.	.	16b-	16b-	.	.
.	.	.	.	8b-	8b-	8f	8F
.	.	.	.	8b-	8b-	8d	8d
.	.	.	.	8b-	8b-	8e-	8E-
.	.	.	.	16cc	16cc	8c	8c
.	.	.	.	16b-	16b-	.	.
=18	=18	=18	=18	=18	=18	=18	=18
1r	1r	2g	2g	4.b-	4.b-	8d	8D
.	.	.	.	.	.	8B-	8B-
.	.	.	.	.	.	8g	8G
.	.	.	.	16cc	16cc	8e-	8e-
.	.	.	.	16b-	16b-	.	.
.	.	2r	2r	8b-	8b-	8f	8F
.	.	.	.	8b-	8b-	8d	8d
.	.	.	.	8b-	8b-	8e-	8E-
.	.	.	.	16cc	16cc	8c	8c
.	.	.	.	16b-	16b-	.	.
=19	=19	=19	=19	=19	=19	=19	=19
1r	1r	1r	1r	8b-	8b-	8d	8D
.	.	.	.	4a-	4a-	8e-	8C
.	.	.	.	.	.	8f	8F
.	.	.	.	8a-	8a-	8d	8BB-
.	.	.	.	8g	8g	8B-	8E-
.	.	.	.	8gg	8gg	8B-	8E-
.	.	.	.	8ee-	8ee-	8g	8C
.	.	.	.	8cc	8cc	8e-	8E-
=20	=20	=20	=20	=20	=20	=20	=20
1r	1r	1r	1r	8.b-	8.b-	8d	8D
.	.	.	.	.	.	4B-	8G
.	.	.	.	16cc	16cc	.	.
.	.	.	.	4cc	4cc	.	8E-
.	.	.	.	.	.	8A	8F
.	.	.	.	8b-	8b-	8B-	8BB-
.	.	.	.	8b-	8b-	8d	8B-
.	.	.	.	8.b-	8.b-	8.d	8G
.	.	.	.	.	.	.	8F
.	.	.	.	32a	32a	32e-	.
.	.	.	.	32b-	32b-	32f	.
=21	=21	=21	=21	=21	=21	=21	=21
8r	8r	4.r	4.r	8cc	8cc	4g	4E-
8gg	8b-	.	.	32cc	32cc	.	.
.	.	.	.	32dd	32dd	.	.
.	.	.	.	16ee-	16ee-	.	.
8ff	8a	.	.	32dd	32dd	8r	8r
.	.	.	.	32ee-	32ee-	.	.
.	.	.	.	16ff	16ff	.	.
8ee	8g	8dd	8dd	32a	32a	8e-	8F
.	.	.	.	32b-	32b-	.	.
.	.	.	.	16cc	16cc	.	.
4ff	4a	4g	4g	8b-	8b-	8d	8B-
.	.	.	.	8b-	8b-	8d	8B-
4r	4r	4r	4r	8.b-	8.b-	8.d	8G
.	.	.	.	.	.	.	8F
.	.	.	.	32a	32a	32e-	.
.	.	.	.	32b-	32b-	32f	.
=22	=22	=22	=22	=22	=22	=22	=22
8r	8r	4.r	4.r	8cc	8cc	4g	4E-
8gg	8b-	.	.	32cc	32cc	.	.
.	.	.	.	32dd	32dd	.	.
.	.	.	.	16ee-	16ee-	.	.
8ff	8a	.	.	32dd	32dd	8r	8r
.	.	.	.	32ee-	32ee-	.	.
.	.	.	.	16ff	16ff	.	.
8ee	8g	8dd	8dd	32a	32a	8e-	8F
.	.	.	.	32b-	32b-	.	.
.	.	.	.	16cc	16cc	.	.
8ff	8a	4g	4g	8b-	8b-	8d	8B-
4.r	4.r	.	.	4.r	4.r	8f	8F
.	.	4r	4r	.	.	4B-	4BB-
=23	=23	=23	=23	=23	=23	=23	=23
1r	1r	1r	1r	2b-	2B-	8b-	8B-
.	.	.	.	.	.	8f	8F
.	.	.	.	.	.	8d	8D
.	.	.	.	.	.	8f	8F
.	.	.	.	2dd	4.d	8b-	8B-
.	.	.	.	.	.	8f	8F
.	.	.	.	.	.	8d	8D
.	.	.	.	.	8dd	8b-	8B-
=24	=24	=24	=24	=24	=24	=24	=24
1r	1r	1r	1r	2ff	8cc	8a	8A
.	.	.	.	.	8b-	8g	8G
.	.	.	.	.	8a	8f	8F
.	.	.	.	.	16g	8e-	8E-
.	.	.	.	.	16a	.	.
.	.	.	.	4b-	8b-	8d	8D
.	.	.	.	.	8cc	8c	8C
.	.	.	.	4r	[4dd	8B-	8BB-
.	.	.	.	.	.	8B-	8B-
=25	=25	=25	=25	=25	=25	=25	=25
1r	1r	1r	1r	2ee-	4dd]	8G	8G
.	.	.	.	.	.	8F	8F
.	.	.	.	.	2cc	8G	8G
.	.	.	.	.	.	8A	8A
.	.	.	.	4.dd	.	8B-	8B-
.	.	.	.	.	.	8c	8c
.	.	.	.	.	8b-	8d	8d
.	.	.	.	8b-	8ff	8d	8B-
=26	=26	=26	=26	=26	=26	=26	=26
1r	1r	1r	1r	4g	4ff	8e-	8E-
.	.	.	.	.	.	8d	8D
.	.	.	.	4a	4ee-	8c	8C
.	.	.	.	.	.	8f	8F
.	.	.	.	4b-	4dd	8g	8G
.	.	.	.	.	.	8f	8F
.	.	.	.	4r	[4gg	8e-	8E-
.	.	.	.	.	.	8d	8D
=27	=27	=27	=27	=27	=27	=27	=27
1r	1r	1r	1r	2aa-	4gg]	8c	8C
.	.	.	.	.	.	8B-	8BB-
.	.	.	.	.	2ff	8c	8C
.	.	.	.	.	.	8d	8D
.	.	.	.	4.gg	.	8e-	8E-
.	.	.	.	.	.	8f	8F
.	.	.	.	.	8ee-	8g	8G
.	.	.	.	8ee-	8b-	8g	8G
=28	=28	=28	=28	=28	=28	=28	=28
1r	1r	1r	1r	4cc	4b-	8a-	8A-
.	.	.	.	.	.	8g	8G
.	.	.	.	4dd	4a-	8f	8F
.	.	.	.	.	.	8B-	8B-
.	.	.	.	4ee-	4g	8c	8c
.	.	.	.	.	.	8B-	8B-
.	.	.	.	[4cc	4r	8A-	8A-
.	.	.	.	.	.	8G	8G
=29	=29	=29	=29	=29	=29	=29	=29
1r	1r	1r	1r	4cc]	2dd-	8F	8F
.	.	.	.	.	.	8E-	8E-
.	.	.	.	2b-	.	8F	8F
.	.	.	.	.	.	8G	8G
.	.	.	.	.	4.cc	8A-	8A-
.	.	.	.	.	.	8B-	8B-
.	.	.	.	8a-	.	8c	8c
.	.	.	.	8ee-	8a-	8A-	8A-
=30	=30	=30	=30	=30	=30	=30	=30
2r	2r	1r	1r	4ee-	4f	8d-	8d-
.	.	.	.	.	.	8c	8c
.	.	.	.	4dd-	4g	8B-	8B-
.	.	.	.	.	.	8e-	8e-
2ee-	2e-	.	.	8cc	8a-	8A-	8A-
.	.	.	.	8e-	8e-	8c	8c
.	.	.	.	8e-	8e-	8c	8c
.	.	.	.	8d-	8d-	8B-	8B-
=31	=31	=31	=31	=31	=31	=31	=31
2gg	2g	1r	1r	8c	8c	8A-	8A-
.	.	.	.	8e-	8e-	8c	8c
.	.	.	.	8d-	8d-	8B-	8B-
.	.	.	.	8c	8c	8A-	8A-
2bb-	2b-	.	.	8B-	8B-	8G	8G
.	.	.	.	8A-	8A-	8F	8F
.	.	.	.	8G	8G	8E-	8E-
.	.	.	.	16A-	16A-	8G	8G
.	.	.	.	16B-	16B-	.	.
=32	=32	=32	=32	=32	=32	=32	=32
2ee-	2e-	1r	1r	8c	8c	8A-	8A-
.	.	.	.	8d-	8d-	8B-	8B-
.	.	.	.	8e-	8e-	8c	8c
.	.	.	.	8d-	8d-	8B-	8B-
2r	2r	.	.	8c	8c	8A-	8A-
.	.	.	.	8d-	8d-	8B-	8B-
.	.	.	.	8c	8c	8A-	8A-
.	.	.	.	8B-	8B-	8G	8G
=33	=33	=33	=33	=33	=33	=33	=33
2cc	2c	1r	1r	8A-	8A-	8F	8F
.	.	.	.	8c	8c	8A-	8A-
.	.	.	.	8c	8c	8A-	8A-
.	.	.	.	8B-	8B-	8G	8G
2ee-	2e-	.	.	8A-	8A-	8F	8F
.	.	.	.	8c	8c	8A-	8A-
.	.	.	.	8B-	8B-	8G	8G
.	.	.	.	8A-	8A-	8F	8F
=34	=34	=34	=34	=34	=34	=34	=34
2gg	2g	1r	1r	8G	8G	8E	8E
.	.	.	.	8A-	8A-	8F	8F
.	.	.	.	8B-	8B-	8G	8G
.	.	.	.	16A-	16A-	8C	8C
.	.	.	.	16G	16G	.	.
2cc	2c	.	.	4A-	4A-	8F	8F
.	.	.	.	.	.	8G	8G
.	.	.	.	4r	[4cc	8A-	8A-
.	.	.	.	.	.	8f	8F
=35	=35	=35	=35	=35	=35	=35	=35
1r	1r	1r	1r	2dd-	4cc]	4f	8B-
.	.	.	.	.	.	.	8A-
.	.	.	.	.	2b-	2e-	8G
.	.	.	.	.	.	.	8E-
.	.	.	.	2cc	.	.	8A-
.	.	.	.	.	.	.	8B-
.	.	.	.	.	[4a-	4e-	8c
.	.	.	.	.	.	.	8A-
=36	=36	=36	=36	=36	=36	=36	=36
1r	1r	1r	1r	2b-	4a-]	4f	8d-
.	.	.	.	.	.	.	8B-
.	.	.	.	.	2g-	2e-	8e-
.	.	.	.	.	.	.	8d-
.	.	.	.	2a-	.	.	8c
.	.	.	.	.	.	.	8A-
.	.	.	.	.	[4f	[4d-	8d-
.	.	.	.	.	.	.	8c
=37	=37	=37	=37	=37	=37	=37	=37
1r	1r	1r	1r	2g	4f]	4d-]	8B-
.	.	.	.	.	.	.	8G
.	.	.	.	.	4e	2c	8c
.	.	.	.	.	.	.	8B-
.	.	.	.	8a-	8f	.	8A-
.	.	.	.	8b-	8g	.	8G
.	.	.	.	4cc	[4a-	8f	8F
.	.	.	.	.	.	8e-	8E-
=38	=38	=38	=38	=38	=38	=38	=38
1r	1r	1r	1r	8b	4a-]	8d	8D
.	.	.	.	8cc	.	8c	8C
.	.	.	.	2dd	8g	8B	8BB
.	.	.	.	.	8f	8b	8B
.	.	.	.	.	2e-	8cc	8c
.	.	.	.	.	.	8b-	8B-
.	.	.	.	[4cc	.	8a	8A
.	.	.	.	.	.	8g	8G
=39	=39	=39	=39	=39	=39	=39	=39
1r	1r	1r	1r	4cc]	4.d	8f#	8F#
.	.	.	.	.	.	8d	8D
.	.	.	.	8.b-	.	8g	8G
.	.	.	.	.	8g	8c#	8C#
.	.	.	.	32a	.	.	.
.	.	.	.	32b-	.	.	.
.	.	.	.	8a	8f#	8d	8D
.	.	.	.	8d	8d	8d	8d
.	.	.	.	8d	8d	8d	8D
.	.	.	.	16e	16e	8c	8C
.	.	.	.	16f#	16f#	.	.
=40	=40	=40	=40	=40	=40	=40	=40
1r	1r	2ee	2e	8g	8g	8B-	8BB-
.	.	.	.	8d	8d	8B-	8B-
.	.	.	.	8d	8d	8B-	8B-
.	.	.	.	8c	8c	8A	8A
.	.	2gg	2g	8B-	8B-	8G	8G
.	.	.	.	8d	8d	8B-	8B-
.	.	.	.	8c	8c	8A	8A
.	.	.	.	8B-	8B-	8G	8G
=41	=41	=41	=41	=41	=41	=41	=41
1r	1r	2bb	2b	8A	8A	8F#	8F#
.	.	.	.	8B-	8B-	8G	8G
.	.	.	.	8c	8c	8A	8A
.	.	.	.	16B-	16B-	8d	8D
.	.	.	.	16A	16A	.	.
.	.	2ee	2e	4B-	4B-	4G	8G
.	.	.	.	.	.	.	8GG
.	.	.	.	[4b-	4d-	[4g	8G
.	.	.	.	.	.	.	8F
=42	=42	=42	=42	=42	=42	=42	=42
1r	1r	1r	1r	4b-]	2c	4g]	8E
.	.	.	.	.	.	.	8C
.	.	.	.	2a-	.	2f	8F
.	.	.	.	.	.	.	8E-
.	.	.	.	.	2B-	.	8D
.	.	.	.	.	.	.	8BB-
.	.	.	.	[4g	.	8e-	8E-
.	.	.	.	.	.	8G	8G
=43	=43	=43	=43	=43	=43	=43	=43
1r	1r	1r	1r	4g]	2c	8A-	8A-
.	.	.	.	.	.	8G	8G
.	.	.	.	8f	.	8A-	8A-
.	.	.	.	8e-	.	8A	8A
.	.	.	.	8d	8B-	8B-	8B-
.	.	.	.	8c	8c	8A-	8A-
.	.	.	.	8B-	8B-	8G	8G
.	.	.	.	16c	16c	8F	8F
.	.	.	.	16d	16d	.	.
=44	=44	=44	=44	=44	=44	=44	=44
1r	1r	2cc	2c	8e-	8e-	8E-	8E-
.	.	.	.	8B-	8B-	8B-	8BB-
.	.	.	.	8G	8G	8G	8GG
.	.	.	.	8B-	8B-	8B-	8BB-
.	.	2ee	2e	8e-	8e-	8e-	8E-
.	.	.	.	8B-	8B-	8B-	8BB-
.	.	.	.	8G	8G	8G	8GG
.	.	.	.	8e-	8e-	8e-	8E-
=45	=45	=45	=45	=45	=45	=45	=45
1r	1r	2gg	2g	8d	8d	8d	8D
.	.	.	.	8c	8c	8c	8C
.	.	.	.	8B-	8B-	8B-	8BB-
.	.	.	.	8A-	8A-	8A-	8AA-
.	.	2cc	2c	8G	8G	8G	8GG
.	.	.	.	8e-	8e-	8e-	8E-
.	.	.	.	8g	8g	8g	8G
.	.	.	.	8e-	8e-	8e-	8E-
=46	=46	=46	=46	=46	=46	=46	=46
2ee-	2ee-	1r	1r	8f	8f	8f	8F
.	.	.	.	8e-	8e-	8e-	8E-
.	.	.	.	8c	8c	8c	8C
.	.	.	.	8d	8d	8d	8D
4dd	4dd	.	.	8e-	8e-	8e-	8E-
.	.	.	.	8f	8f	8f	8F
4b-	4b-	.	.	8g	8g	8g	8G
.	.	.	.	8cc	8cc	8cc	8c
=47	=47	=47	=47	=47	=47	=47	=47
4g	4g	1r	1r	8a-	8a-	8a-	8A-
.	.	.	.	8g	8g	8g	8G
4a	4a	.	.	8f	8f	8f	8F
.	.	.	.	8b-	8b-	8b-	8B-
2b-	2b-	.	.	8g	8g	8g	8G
.	.	.	.	8e-	8e-	8e-	8E-
.	.	.	.	8B-	8B-	8B-	8BB-
.	.	.	.	8A-	8A-	8A-	8AA-
=48	=48	=48	=48	=48	=48	=48	=48
1r	1r	2cc	2c	8G	8G	8G	8GG
.	.	.	.	8e-	8e-	8e-	8E-
.	.	.	.	8g	8g	8g	8G
.	.	.	.	8f	8f	8f	8F
.	.	2ee	2e	8e-	8e-	8e-	8E-
.	.	.	.	8B-	8B-	8B-	8BB-
.	.	.	.	8G	8G	8G	8GG
.	.	.	.	8e-	8e-	8e-	8E-
=49	=49	=49	=49	=49	=49	=49	=49
1r	1r	2gg	2g	8d	8d	8d	8D
.	.	.	.	8c	8c	8c	8C
.	.	.	.	8B-	8B-	8B-	8BB-
.	.	.	.	8A-	8A-	8A-	8AA-
.	.	2cc	2c	8G	8G	4G	8GG
.	.	.	.	8e-	8e-	.	8E-
.	.	.	.	4e-	4e-	4r	8G
.	.	.	.	.	.	.	8F
=50	=50	=50	=50	=50	=50	=50	=50
1r	1r	1r	1r	2gg	4r	1B-	8E-
.	.	.	.	.	.	.	8F
.	.	.	.	.	2ee-	.	8G
.	.	.	.	.	.	.	8A-
.	.	.	.	2ff	.	.	8B-
.	.	.	.	.	.	.	8c
.	.	.	.	.	[4dd	.	8d
.	.	.	.	.	.	.	8BB-
=51	=51	=51	=51	=51	=51	=51	=51
1r	1r	1r	1r	2ee-	4dd]	1G	8C
.	.	.	.	.	.	.	8D
.	.	.	.	.	2cc	.	8E-
.	.	.	.	.	.	.	8F
.	.	.	.	4dd	.	.	8G
.	.	.	.	.	.	.	8A-
.	.	.	.	4dd-	[4b-	.	8B-
.	.	.	.	.	.	.	8GG
=52	=52	=52	=52	=52	=52	=52	=52
1r	1r	1r	1r	2cc	4b-]	1E-	8AA-
.	.	.	.	.	.	.	8BB-
.	.	.	.	.	2a-	.	8C
.	.	.	.	.	.	.	8D
.	.	.	.	2b-	.	.	8E-
.	.	.	.	.	.	.	8F
.	.	.	.	.	[4g	.	8G
.	.	.	.	.	.	.	8E-
=53	=53	=53	=53	=53	=53	=53	=53
1r	1r	1r	1r	2a-	4g]	4.C	8F
.	.	.	.	.	.	.	8E-
.	.	.	.	.	2f	.	8C
.	.	.	.	.	.	8D	8D
.	.	.	.	2g	.	8E-	8E-
.	.	.	.	.	.	8F	8F
.	.	.	.	.	4e-	8G	8G
.	.	.	.	.	.	8A	8A
=54	=54	=54	=54	=54	=54	=54	=54
[1ff	4.r	[1g	[1G	4f	16d	16B-	8B-
.	.	.	.	.	16B-	16B-	.
.	.	.	.	.	16B-	16B-	8BB-
.	.	.	.	.	16B-	16B-	.
.	.	.	.	8r	16B-	16B-	8D
.	.	.	.	.	16B-	16B-	.
.	8dd	.	.	8g	16B-	16B-	8E-
.	.	.	.	.	16B-	16B-	.
.	8ee-	.	.	8a-	16B-	16B-	8F
.	.	.	.	.	16B-	16B-	.
.	8cc	.	.	8f	16B-	16B-	8D
.	.	.	.	.	16B-	16B-	.
.	8dd	.	.	8g	16B-	16B-	8E-
.	.	.	.	.	16B-	16B-	.
.	8ee	.	.	8a	16B-	16e-	8C
.	.	.	.	.	16B-	16e-	.
=55	=55	=55	=55	=55	=55	=55	=55
1ff_	4ff	1g_	1G_	4b-	16B-	16d	8BB-
.	.	.	.	.	16B-	16B-	.
.	.	.	.	.	16B-	16B-	8D
.	.	.	.	.	16B-	16B-	.
.	8r	.	.	8r	16B-	16B-	8F
.	.	.	.	.	16B-	16B-	.
.	8cc	.	.	8f	16B-	16B-	8D
.	.	.	.	.	16B-	16B-	.
.	8dd-	.	.	8g-	16B-	16B-	8E-
.	.	.	.	.	16B-	16B-	.
.	8cc	.	.	8f	16B-	16B-	8D
.	.	.	.	.	16B-	16B-	.
.	8dd-	.	.	8g-	16B-	16B-	8E-
.	.	.	.	.	16B-	16B-	.
.	8ee	.	.	8a	16B-	16e-	8C-
.	.	.	.	.	16B-	16e-	.
=56	=56	=56	=56	=56	=56	=56	=56
2ff]	2.ff	4g]	4G]	2.b-	4B-	4d	8BB-
.	.	.	.	.	.	.	8B-
.	.	2.r	2.r	.	4r	8b-	8G
.	.	.	.	.	.	8a-	8F
2gg	.	.	.	.	2cc	4g	8E
.	.	.	.	.	.	.	8C
.	[4ee-	.	.	[4a-	.	[4f	8F
.	.	.	.	.	.	.	8E-
=57	=57	=57	=57	=57	=57	=57	=57
[2ff	4ee-]	1r	1r	4a-]	[2b-	4f]	8D
.	.	.	.	.	.	.	8BB-
.	[4dd	.	.	[4g	.	8e-	8E-
.	.	.	.	.	.	8G	8G
16ff]	16dd]	.	.	16g]	16b-]	8A-	8A-
16ee-	16cc	.	.	16f	16a-	.	.
16gg	16ee-	.	.	16a-	16cc	8F	8F
16ee-	16cc	.	.	16f	16a-	.	.
8dd	8b-	.	.	8e-	8g	8B-	8B-
8cc	8a	.	.	8d	8f	8B-	8BB-
=58	=58	=58	=58	=58	=58	=58	=58
4b-	4b-	[1cc	[1c	2ee-	2ee-	8G	8GG
.	.	.	.	.	.	8B-	8BB-
2.r	2.r	.	.	.	.	8e-	8E-
.	.	.	.	.	.	8G	8GG
.	.	.	.	4cc	4cc	8A-	8AA-
.	.	.	.	.	.	8c	8C
.	.	.	.	8a-	8a-	8f	8F
.	.	.	.	8f	8f	8A-	8AA-
=59	=59	=59	=59	=59	=59	=59	=59
1r	1r	4cc]	4c]	4.e-	4.e-	8B-	8BB-
.	.	.	.	.	.	8g	8G
.	.	2.r	2.r	.	.	8B-	8BB-
.	.	.	.	16f	16f	8d	8D
.	.	.	.	16e-	16e-	.	.
.	.	.	.	8e-	8e-	8e-	8E-
.	.	.	.	8e-	8e-	8c	8C
.	.	.	.	8e-	8e-	8B-	8BB-
.	.	.	.	8e-	8e-	8A-	8AA-
=60	=60	=60	=60	=60	=60	=60	=60
1r	1r	[1cc	[1c	2ee-	2ee-	8G	8GG
.	.	.	.	.	.	8B-	8BB-
.	.	.	.	.	.	8e-	8E-
.	.	.	.	.	.	8G	8GG
.	.	.	.	4cc	4cc	8A-	8AA-
.	.	.	.	.	.	8c	8C
.	.	.	.	8a-	8a-	8f	8F
.	.	.	.	8f	8f	8A-	8AA-
=61	=61	=61	=61	=61	=61	=61	=61
1r	1r	4cc]	4c]	4.e-	4.e-	8B-	8BB-
.	.	.	.	.	.	8g	8G
.	.	2.r	2.r	.	.	8c	8C
.	.	.	.	16f	16f	8a-	8A-
.	.	.	.	16e-	16e-	.	.
.	.	.	.	8e-	8e-	8B-	8BB-
.	.	.	.	8e-	8e-	8g	8G
.	.	.	.	8e-	8e-	8A-	8AA-
.	.	.	.	16f	16f	8f	8F
.	.	.	.	16e-	16e-	.	.
=62	=62	=62	=62	=62	=62	=62	=62
1r	1r	2cc	2c	4.e-	4.e-	8G	8GG
.	.	.	.	.	.	8e-	8E-
.	.	.	.	.	.	8c	8C
.	.	.	.	16f	16f	8a-	8A-
.	.	.	.	16e-	16e-	.	.
.	.	2r	2r	8e-	8e-	8B-	8BB-
.	.	.	.	8e-	8e-	8g	8G
.	.	.	.	8e-	8e-	8A-	8AA-
.	.	.	.	16f	16f	8f	8F
.	.	.	.	16e-	16e-	.	.
=63	=63	=63	=63	=63	=63	=63	=63
1r	1r	1r	1r	8e-	8e-	8G	8GG
.	.	.	.	4dd-	4dd-	8b-	8B-
.	.	.	.	.	.	8g	8G
.	.	.	.	8dd-	8dd-	8e-	8E-
.	.	.	.	16dd-	16dd-	4a-	4A-
.	.	.	.	16cc	16cc	.	.
.	.	.	.	16b	16b	.	.
.	.	.	.	16cc	16cc	.	.
.	.	.	.	16b-	16b-	8r	8r
.	.	.	.	16a-	16a-	.	.
.	.	.	.	16g	16g	8a-	8A-
.	.	.	.	16f	16f	.	.
=64	=64	=64	=64	=64	=64	=64	=64
1r	1r	1r	1r	8.e-	8.e-	8g	8G
.	.	.	.	.	.	8cc	8c
.	.	.	.	16f	16f	.	.
.	.	.	.	4f	4f	8a-	8A-
.	.	.	.	.	.	8b-	8B-
.	.	.	.	8e-	8e-	8e-	8E-
.	.	.	.	8e-	8e-	8e-	8e-
.	.	.	.	8.e-	8.e-	8c	8c
.	.	.	.	.	.	8B-	8B-
.	.	.	.	32d	32d	.	.
.	.	.	.	32e-	32e-	.	.
=65	=65	=65	=65	=65	=65	=65	=65
8r	8r	8r	8r	8f	8f	4A-	4A-
8ee-	8cc	8ff	8dd	32f	32f	.	.
.	.	.	.	32g	32g	.	.
.	.	.	.	16a-	16a-	.	.
8dd	8b-	8ee	8cc	32g	32g	8r	8r
.	.	.	.	32a-	32a-	.	.
.	.	.	.	16b-	16b-	.	.
8cc	8a	8dd	8g	32d	32d	8B-	8B-
.	.	.	.	32e-	32e-	.	.
.	.	.	.	16f	16f	.	.
4b-	4b-	4cc	4e	8e-	8e-	8e-	8E-
.	.	.	.	8ee-	8ee-	8e-	8e-
4r	4r	4r	4r	8.ee-	8.ee-	8c	8c
.	.	.	.	.	.	8B-	8B-
.	.	.	.	32dd	32dd	.	.
.	.	.	.	32ee-	32ee-	.	.
=66	=66	=66	=66	=66	=66	=66	=66
8r	8r	8r	8r	8ff	8ff	4A-	4A-
8ee-	8cc	8ff	8dd	32ff	32ff	.	.
.	.	.	.	32gg	32gg	.	.
.	.	.	.	16aa-	16aa-	.	.
8dd	8b-	8ee	8cc	32gg	32gg	8r	8r
.	.	.	.	32aa-	32aa-	.	.
.	.	.	.	16bb-	16bb-	.	.
8cc	8a	8dd	8g	32dd	32dd	8B-	8B-
.	.	.	.	32ee-	32ee-	.	.
.	.	.	.	16ff	16ff	.	.
2b-	2b-	2cc	2c	8ee-	8ee-	4e-	4E-
.	.	.	.	8bb-	8gg	.	.
.	.	.	.	8gg	8ee-	4r	4r
.	.	.	.	8ee-	8b-	.	.
=67	=67	=67	=67	=67	=67	=67	=67
2dd	2dd	2ee	2e	8r	8r	4e-	4E-
.	.	.	.	8ee-	8g	.	.
.	.	.	.	8b-	8g	4r	4r
.	.	.	.	8g	8e-	.	.
2ff	2ff	2gg	2g	8r	8r	4B-	4BB-
.	.	.	.	8a-	8f	.	.
.	.	.	.	8f	8d	4r	4r
.	.	.	.	8d	8A-	.	.
=68	=68	=68	=68	=68	=68	=68	=68
4b-	4b-	4cc	4c	4e-	4G	4E-	4EE-
8.b-	8.d	8.cc	8.c	4r	4r	4r	4r
16b-	16d	16cc	16c	.	.	.	.
4b-	4d	4cc	4c	4e- 4G	4e- 4G	4E-	4EE-
4r	4r	4r	4r	4r	4r	4r	4r
==	==	==	==	==	==	==	==
*-	*-	*-	*-	*-	*-	*-	*-
!!!RWG1: This file contains only pitch and duration data.
!!!RWG2: Transposing instruments are not transposed.
!!!RWG3: Spines may have incompatible meters.
!!!RWG4: Durations of rests and tied notes may be interpreted.
!!!RWG: Key is interpreted using the Humdrum key tool.
!!!OPT: The Philosopher 
!!!AFT: stage1 
!!!END: 2000/12/13
!!format changes:
!!content changes:
!!public access: complete
!!!KEY: 3478799239
!!!EMD: Converted from MuseData to Humdrum Dec 16, 2000, by Andreas Kornstaedt using muse2kern.
